dist/assets/images/payment/visa.svg

<svg width="50" height="34" viewBox="0 0 50 34" fill="none" xmlns="http://www.w3.org/2000/svg">
<path d="M0 4.25C0 1.90279 1.86548 0 4.16667 0H45.8333C48.1345 0 50 1.90279 50 4.25V29.75C50 32.0972 48.1345 34 45.8333 34H4.16667C1.86548 34 0 32.0972 0 29.75V4.25Z" fill="#1E4D51"/>
<path d="M43.031 10.662H40.4116C39.6197 10.662 39.0105 10.9105 38.645 11.7183L33.6499 23.3374H37.183C37.183 23.3374 37.7922 21.7841 37.914 21.4113C38.2795 21.4113 41.7517 21.4113 42.2391 21.4113C42.3609 21.8462 42.6655 23.2753 42.6655 23.2753H45.8331L43.031 10.662ZM38.8887 18.8016C39.1933 18.056 40.2288 15.2599 40.2288 15.2599C40.2288 15.3221 40.5334 14.5143 40.6552 14.0794L40.8989 15.1978C40.8989 15.1978 41.569 18.2424 41.6908 18.8637H38.8887V18.8016Z" fill="#3362AB"/>
<path d="M33.894 19.1745C33.894 21.7842 31.5792 23.524 27.9851 23.524C26.4622 23.524 25.0003 23.2133 24.2083 22.8405L24.6957 19.9823L25.1221 20.1687C26.2186 20.6658 26.9496 20.8522 28.2897 20.8522C29.2644 20.8522 30.3 20.4794 30.3 19.6095C30.3 19.0503 29.8735 18.6775 28.5334 18.0561C27.2542 17.4348 25.5485 16.4406 25.5485 14.6387C25.5485 12.1533 27.9242 10.4757 31.2746 10.4757C32.5539 10.4757 33.6503 10.7242 34.3204 11.0349L33.8331 13.7688L33.5894 13.5203C32.9803 13.2718 32.1884 13.0232 31.031 13.0232C29.7517 13.0854 29.1426 13.6446 29.1426 14.1416C29.1426 14.7009 29.8735 15.1358 31.031 15.695C32.9803 16.627 33.894 17.6833 33.894 19.1745Z" fill="#3362AB"/>
<path d="M4.16667 10.7864L4.22759 10.5379H9.46638C10.1974 10.5379 10.7456 10.7864 10.9284 11.5942L12.0858 17.1863C10.9284 14.2038 8.24806 11.7806 4.16667 10.7864Z" fill="#F9B50B"/>
<path d="M19.4569 10.6622L14.1572 23.2755H10.5631L7.51729 12.7127C9.71027 14.1418 11.5378 16.3786 12.2078 17.932L12.5733 19.2368L15.8628 10.6001H19.4569V10.6622Z" fill="#3362AB"/>
<path d="M20.8577 10.6001H24.2081L22.076 23.2755H18.7256L20.8577 10.6001Z" fill="#3362AB"/>
</svg>

<svg width="50" height="34" fill="none" xmlns="http://www.w3.org/2000/svg"><path d="M0 4.25C0 1.903 1.865 0 4.167 0h41.666C48.135 0 50 1.903 50 4.25v25.5c0 2.347-1.865 4.25-4.167 4.25H4.167C1.865 34 0 32.097 0 29.75V4.25z" fill="#1E4D51"/><path d="M43.031 10.662h-2.62c-.791 0-1.4.248-1.766 1.056l-4.995 11.62h3.533s.61-1.554.731-1.927h4.325c.122.435.427 1.864.427 1.864h3.167l-2.802-12.613zm-4.142 8.14c.304-.746 1.34-3.542 1.34-3.542 0 .062.304-.746.426-1.18l.244 1.118s.67 3.044.792 3.666h-2.802v-.062zm-4.995.372c0 2.61-2.315 4.35-5.909 4.35-1.523 0-2.985-.31-3.777-.684l.488-2.858.426.187c1.097.497 1.828.683 3.168.683.974 0 2.01-.373 2.01-1.242 0-.56-.427-.933-1.767-1.554-1.279-.621-2.985-1.615-2.985-3.417 0-2.486 2.376-4.163 5.727-4.163 1.279 0 2.375.248 3.045.559l-.487 2.734-.244-.249a6.435 6.435 0 00-2.558-.497c-1.28.062-1.888.622-1.888 1.119 0 .559.73.994 1.888 1.553 1.95.932 2.863 1.988 2.863 3.48z" fill="#3362AB"/><path d="M4.167 10.786l.06-.248h5.24c.73 0 1.279.248 1.461 1.056l1.158 5.592c-1.158-2.982-3.838-5.405-7.92-6.4z" fill="#F9B50B"/><path d="M19.457 10.662l-5.3 12.614h-3.594L7.517 12.713c2.193 1.429 4.02 3.666 4.69 5.219l.366 1.305 3.29-8.637h3.594v.062zm1.401-.062h3.35l-2.132 12.676h-3.35L20.858 10.6z" fill="#3362AB"/></svg>
